X: 10
T: Rolling In The Barrel
Z: Jeremy
S: https://thesession.org/tunes/500#setting32805
R: reel
M: 4/4
L: 1/8
K: Emin
E2EE BEE2|B2AF DEFD|E2EE BEE2|B2Ac BEED|
E3E BEE2|B2AF DEFD|EFGE BAFA|B2Ac BEE2||
e2ge bege|d2df a2fd|e2ge bege|dBAc BEE2|
e2ge bege|d2df a2fd|efge fdeB|dBAc BEE2||

